X:509
T:Smeden's Anden Fynbo
C:Joe Buchanan's Scottish Tome - Page 486.0
I:486 0
R:Polka
Z:Carl Allison
L:1/8
M:2/4
K:G
W:1st Fiddle
%%vskip 0
"G"vBB dB | "G"GG B2 | "D"Bc/B/ AB/A/ | "G"GB d2 |
"G"BB d>B | "G"GG B2 | "D"cc/B/ AB/A/ | "G"GG G2 :|
[K:D]"D"AA/A/ AA/A/ | "D"A(d/f/) aa | "A"gg/f/ ee | "D"ff/e/ dd |
"D"AA/A/ AA/A/ | "D"A(d/f/) aa | "A"gg/f/ ef/e/ | "D"dd d2 :|
W:2nd Fiddle
%%vskip 0
[K:G] "G"GG BG | "G"DD G2 | "D"AA/G/ FD/C/ | "G"B,D B2 |
"G"GG BG | "G"DD G2 | "D"AA/G/ FG | "G"GG G2 :|
[K:D]"D"FF/F/ FF/F/ | "D"FA/d/ ff | "A"ee/d/ cc | "D"dd/A/ FF |
"D"FF/F/ FF/d/ | "D"FA/d/ ff | "A"ee/d/ c2 | "D"dd d2 :|

